X: 1017
T: the King's Arms
P: Longways for as many as will
R: jig
B: "Caledonian Country Dances" printed by John Walsh for John Johnson, London
S: http://imslp.org/wiki/Caledonian_Country_Dances_with_a_Thorough_Bass_(Various)
Z: 2013 John Chambers <jc:trillian.mit.edu>
M: 6/8
L: 1/8
K: D
% - - - - - - - - - - - - - - - - - - - - - - - - -
V: 1
|:\
D>ED AFD | AFD AFD | A>BA d>ef | e>dc/B/ A>GF/E/ |\
D>ED AFD | AFD AFD | A>BA d>ef | e>de/c/ d3 :|
|:\
e>fe e>dc | B>cd/e/ Tc>BA | dAF dAF | G>AG/F/ E2A, |\
e>fe e>dc | B>cd/e/ Td>cB | fdB ecA | B/c/dB d3 :|
% - - - - - - - - - - - - - - - - - - - - - - - - -
V: 2 clef=bass middle=d
|:\
d3 D3 | f3 d3 | d'3 d3 | a3 A3 |\
d3 D3 | f3 d3 | d'3 d3 | a2A d3 :|
|:\
A3 a3 | a2^g a2=g | f2a f2d | c2d A2z |\
a3 A3 | a2^g a3 | f2g a2f | g2a d3 :|
% - - - - - - - - - - - - - - - - - - - - - - - - -
%%begintext align
The 1st Man cast down, the 2d Wo. cast up at the same time, and then cast back again into their own Places :|
their Partners do the same :|
the 1st Man figures round the 3d Man.  1st Wo. figures round the 3d Wo. at the same time and turn her Partner in the 3d Cu. Place .|
the 1st Man figures round the 2d Man. 1st Wo. figures round the 2d Wo. at the same time, and turn at top :|
1st Man foots it with the 2d Wo. and turns her .|
1st Wo. does the same with the 2d Man :|
1st and 2d Cu. goes cross hands half round with their right hands, back with their left and cast off .|
1st and 2d Cu. right and left quite round.
%%endtext

%%sep 1 1 500
%%sep 1 1 500
